X: 58
T:Fairies Advance,The.(secundo) The RH.043
M:C
L:1/8
Q:100
S:Rev.R.Harrison's MS,c1815,Cumbria
R:March
O:England
A:Temple Sowerby,Cumbria
Z:vmp.Simon Wilson....
K:D
D>E|F2F>F (F/A/F/A/) (d/A/B/G/)|F2D>D D2F>F|\
G/F/E/D/ FF d/c/B/A/ G/F/E/D/|D2A>A A2D>E|!
FAFA dABG|F2D>D D2B>A|GBcA FFGE|F2F>F F2:|!
|:d>e|f2f>d g2g>f|e/d/e/f/ ecf2fe|dcBA GA/B/ e/d/c/B/|FAFA GABc|!
d3e/d/ A3d/A/|F3A/F/ A3F/A/|FABG FD AG|F2F>F F2:|]
